icons/svg/road_shields/h_white_usshield_5_road_shield.svg

<?xml version="1.0" encoding="UTF-8" standalone="no"?>
<!-- Generator: Adobe Illustrator 16.0.4, SVG Export Plug-In . SVG Version: 6.00 Build 0)  -->

<svg
   xmlns:dc="http://purl.org/dc/elements/1.1/"
   xmlns:cc="http://creativecommons.org/ns#"
   xmlns:rdf="http://www.w3.org/1999/02/22-rdf-syntax-ns#"
   xmlns:svg="http://www.w3.org/2000/svg"
   xmlns="http://www.w3.org/2000/svg"
   xmlns:sodipodi="http://sodipodi.sourceforge.net/DTD/sodipodi-0.dtd"
   xmlns:inkscape="http://www.inkscape.org/namespaces/inkscape"
   version="1.1"
   id="Слой_1"
   x="0px"
   y="0px"
   width="43"
   height="25"
   viewBox="0 0 43 25"
   enable-background="new 0 0 17.143 17.17"
   xml:space="preserve"
   inkscape:version="0.91 r13725"
   sodipodi:docname="h_white_usshield_5_road_shield.svg"><metadata
     id="metadata13"><rdf:RDF><cc:Work
         rdf:about=""><dc:format>image/svg+xml</dc:format><dc:type
           rdf:resource="http://purl.org/dc/dcmitype/StillImage" /><dc:title></dc:title></cc:Work></rdf:RDF></metadata><defs
     id="defs11" /><sodipodi:namedview
     pagecolor="#ffffff"
     bordercolor="#666666"
     borderopacity="1"
     objecttolerance="10"
     gridtolerance="10"
     guidetolerance="10"
     inkscape:pageopacity="0"
     inkscape:pageshadow="2"
     inkscape:window-width="1920"
     inkscape:window-height="1006"
     id="namedview9"
     showgrid="false"
     inkscape:zoom="19.43823"
     inkscape:cx="17.338727"
     inkscape:cy="16.084436"
     inkscape:window-x="1920"
     inkscape:window-y="0"
     inkscape:window-maximized="1"
     inkscape:current-layer="Слой_1" /><path
     id="path11"
     d="m 21.500002,3.9691752 c -1.994374,0.7228769 -4.345277,1.1400797 -6.862457,1.1400797 -2.517185,0 -7.2864417,-0.4172656 -9.6919366,-1.1401426 L 1.4616225,7.6697598 c 1.1618463,0.967979 1.8439641,2.1480631 1.8439641,3.4215752 0,0.919049 -0.3552665,1.789453 -0.9897491,2.566585 -0.5476026,0.67156 -0.854215,1.42363 -0.854215,2.217624 0,2.843615 3.9326176,5.148727 8.7839465,5.148727 l 5.496295,0 c 2.324631,0 4.399291,0.627311 5.758138,1.608914 1.358822,-0.981603 3.433481,-1.608914 5.758139,-1.608914 l 5.496293,0 c 4.85133,0 8.783944,-2.305112 8.783944,-5.148727 0,-0.793994 -0.30661,-1.546064 -0.854266,-2.217624 -0.634457,-0.777132 -0.989695,-1.647536 -0.989695,-2.566585 0,-1.2735121 0.682118,-2.4535962 1.843961,-3.4215752 L 38.054394,3.9691123 c -2.405495,0.722877 -7.174752,1.1401426 -9.691936,1.1401426 -2.517179,0 -4.868109,-0.4172028 -6.862456,-1.1400797 z"
     inkscape:connector-curvature="0"
     style="color:#000000;clip-rule:evenodd;display:inline;overflow:visible;visibility:visible;opacity:1;isolation:auto;mix-blend-mode:normal;color-interpolation:sRGB;color-interpolation-filters:linearRGB;solid-color:#000000;solid-opacity:1;fill:#ffffff;fill-opacity:1;fill-rule:evenodd;stroke:#696969;stroke-width:0.99999994;stroke-linecap:butt;stroke-linejoin:miter;stroke-miterlimit:4;stroke-dasharray:none;stroke-dashoffset:0;stroke-opacity:1;color-rendering:auto;image-rendering:auto;shape-rendering:auto;text-rendering:auto;enable-background:accumulate"
     sodipodi:nodetypes="csccscssscssscsccsc" /></svg>

<svg width="43" height="25" viewBox="0 0 43 25" fill="none" xmlns="http://www.w3.org/2000/svg">
<path fill-rule="evenodd" clip-rule="evenodd" d="M21.5 3.96918C19.5056 4.69206 17.1547 5.10926 14.6375 5.10926C12.1204 5.10926 7.35111 4.69199 4.94561 3.96912L1.46162 7.66976C2.62347 8.63774 3.30559 9.81783 3.30559 11.0913C3.30559 12.0104 2.95032 12.8808 2.31584 13.6579C1.76824 14.3295 1.46162 15.0816 1.46162 15.8755C1.46162 18.7192 5.39424 21.0243 10.2456 21.0243H15.7419C18.0665 21.0243 20.1412 21.6516 21.5 22.6332C22.8588 21.6516 24.9335 21.0243 27.2581 21.0243H32.7544C37.6058 21.0243 41.5384 18.7192 41.5384 15.8755C41.5384 15.0816 41.2318 14.3295 40.6841 13.6579C40.0497 12.8808 39.6944 12.0104 39.6944 11.0913C39.6944 9.81783 40.3765 8.63774 41.5384 7.66976L38.0544 3.96912C35.6489 4.69199 30.8796 5.10926 28.3625 5.10926C25.8453 5.10926 23.4944 4.69206 21.5 3.96918V3.96918Z" fill="white" stroke="#696969"/>
</svg>
